!!!OTL: Eine Schwalbe macht keinen Sommer (167a), S. 362
!!!id: T0340
**kern
*clefG2
*k[f#c#]
*D:
{16d
=1
16d
4.a
8g
8.f#
16a
8.b
=2yy
16f#
=3
4a
4g
4e
4e}
=4
{4.a
8a
8.cc#
16b
8.a
16g
=5
4f#
4d
4d}
=6
{8a
8a
=7
4.dd
8cc#
8.ee
16dd
8.cc#
16dd
=8
4b
4b}
=9
{8.ee
16dd
8.cc#
16dd
=10
8a
8a}
=11
{8a
8dd
8cc#
8b
8.a
16g
=12
4f#
4d
4d}
=13
{8.a
16b
=14
8.a
16g
8g
8g
4g}
=15
{8a
8b
=16
4a
8f#
8f#
4f#}
=17
{8a
8a
=18
4dd
8dd
8dd
4dd}
=19
{8a
8a
=20
8.dd
16dd
8.dd
16dd
4dd}
=21
{8.a
16g
=22
4f#
8.d
16d
4d}
=23
{8.dd
16cc#
=24
4b
8.g
16f#
4e}
=25
{8.ee
16ee
=26
4.dd
8dd
4cc#
8b
8cc#
=27
2dd}
4r
=28
{8.a
16g
=29
4f#
8.d
16d
4d}
=30
{8.dd
16cc#
=31
4b
8.g
16f#
4e}
=32
{8.ee
16ee
=33
4.dd
8dd
4cc#
8b
8cc#
=34
2dd}
2r
==
*-
!!!minrhy: 16
!!!meters: 4/4 ]  ZZ[15
!!!cut: Eine Schwalbe macht keinen Sommer (167a), S. 362
!!!reg: Luxemburg
!!!trd: Singendes Volk, Esch-Alzette, 1937 posth.
!!!rhy1:   X__.X_X_.XX_.X  X__X__X__X__
!!!rhy2: X__.X_X_.XX_.X  X__X__X__
!!!key: T0340  16  D 4/4 ]  ZZ[15
!!!mod: HEPTATONIK IONISCH]  AMBITUS[9
!!!kad: 2165143+1+112+112+1
!!!akz: 5352_5731_+1+26_+25_731_54_53_+1+1_+1+1_31_62_+17+1_31_62_+17+1_
!!!fot: 'a__b__c__d__e__f__g__h__i__j__k__l__j__k__l__
!!!for: 'a__aw_aw_b__c__d__e__e__f__g__g__h__g__g__hv_
!!!fok: 'Sd_^d_^a_\__^d_\__\__/__/__\__\__Vd_\__\__Vd_
!! PHRAS[VORWIEGEND AUFTAKTIG]
!!!fkt: Abschieds- und Wanderlieder, Heimatlieder,  Liebeslied
!!!bem1: Junglinster, hhh Vater des Verfassers, 1900;
!!!bem2: (167b)- StraPen, fff Witry, 13.12.1932;
!!!bem3: (167c)- hhh Anton Koob, Liederheft, 1861
!! THILL, Mathias:
!! PR[32] 2K[7] 2G[18] 3K[4] 3G[4] 4A[0] 4Ü[0] 5A[4] 6K[0] 6G[0]
!! 7K[0] 7G[0] 8A[0] MEHR[0] SI[36] ABS[28] SR[25] SP[11]
!! ST[8] 2k[7] 2g[11] 3k[4] 3g[7] 4d[0] 4ü[0] 5d[4] 6k[0] 6g[0]
!! 7k[0] 7g[0] 8d[0] mehr[0] si[32] dm[+4] sr[18] sp[14]
!! 1F[90] 2F[10] 3F[0] 4F[0] LF[0] 2P[0] 3P[0] 4P[0] TRI[0] DF[2] AB[29]
!! TF[0] U3K[0] U3[0] U4[0] U4Ü[0] U5[3] U6K[0] U6[0] U7K[0] U7[7]
!! N1[31] N2K[0] N2[21] N3K[0] N3[10] N4[7] N4Ü[0] N5[14] N6K[0] N6[7]
!!!n7k: 0] N7[0] O1[0] O2K[0] O2[0] O3K[0] O3[0] HÖ[0
